X:1
T:“THE BANJO”
T:“THE BANJO”
T:BY GOTTSCHALK
T:1855
T:1855
T:1855
T:1855
T:1855
T:1855
T:1855
T:1855
T:1855
T:1855
T:1855
T:1855
T:1855
Z:1855
%%score ( 1 2 ) { 3 | 4 } { ( 5 7 ) | ( 6 8 9 ) }
L:1/8
Q:1/4=100
M:2/4
K:F#
V:1 treble nm="Piano"
V:2 treble 
V:3 treble nm="Piano"
V:4 bass 
V:5 treble nm="Piano"
V:7 treble 
V:6 bass 
V:8 bass 
V:9 bass 
V:1
"^Ardito." z4 | z4 | z4 | z4 | z4 | z4 | z4 | z4 |] %8
[M:2/4][Q:1/4=110]"^MODERATO.""^Tres Rythmé." z4 | z4 | z4 | z4 | z4 | z4 | z4 | z4 | z4 | z4 | %18
 z4 | z4 | z4 | z4 | z4 | z4 | z4 | z4 | z4 | z4 | z4 | z4 | z4 | z4 | z4 | z4 | z4 | z4 | z4 | %37
 z4 | z4 | z4 | z4 | z4 | z4 | z4 | z4 | z4 | z4 | z4 | z4 | z4 |"_tres rythmè." z4 | z4 | z4 | %53
 z4 | z4 | z4 | z4 | z4 | z4 | z4 | %60
!ppp!"^Facilité."!8va(! (3a'/a'/a'/a'/[a'f'']/ d''/c''/a'/f'/!8va)! | d'/c'/a/f/ c[cgc'] | %62
 (3f/f/f/f'/f/ g/a/f/c'/ |!8va(! (3d'/d'/d'/d''/e'/ f'/g'/e'/f'/ | %64
 (3a'/a'/a'/a'/[a'f'']/ d''/c''/a'/f'/!8va)! | d'/c'/a/f/ c[cgc'] | [fa]/c/ z [ff'][Fdf] | %67
 [Fcf][fc'f'] [gc'g']c' |{/c'} [aa'][ff'][K:bass] z/!mf! F,/[DF]/F,/ | z/ F,/[CF]/F,/ z [G,C]/C,/ | %70
 z [C,F,A,] z [F,DF] |[K:treble] [FBf][fc'f'] [gc'g']c' | %72
{/c'} [aa'][ff'][K:bass] z/!mf! F,/[DF]/F,/ | z/ F,/[CF]/F,/ z/ D,/[G,D]/D,/ | %74
 z [G,C]/F,/ z [CF]/F,/ | x [CE]/E,/ z/ D,/[G,D]/D,/ | z [G,C]/F,/ z [CF]/F,/ | %77
 x [CE]/E,/ z/ D,/[G,D]/D,/ | z [G,C]/F,/ z [CF]/F,/ | x [CE]/E,/ z/ D,/[G,D]/D,/ | %80
 z [G,C]/F,/ z [CF]/F,/ | x [CE]/E,/ z/ D,/[G,D]/D,/ | x C/C,/ x C,/D,/ | x C/C,/ x C,/D,/ | %84
"_strepitoso."!ff! !trill(!TC,2- C,>^B,, |!<(! C,/^^C,/E,/D,/ ^C,/B,,/A,,/G,,/!<)! | %86
"^subito." F,,!p![F,A,]/C,/ z [F,B,] | z4 | z4 | z4 | z4 | z4 | z4 | z4 | z4 | z4 | z4 | z4 | z4 | %99
 z4 | z4 | z4 | z4 | z4 | z4 | z4 | z4 | z4 | z4 | z4 | z4 | z4 | z4 | z4 | z4 | z4 | z4 | z4 | %118
 z4 | z4 | z4 | z4 | z4 | z4 | %124
[K:treble]!ppp!"^Facilité."!8va(! (3a'/a'/a'/a'/[a'f'']/ d''/c''/a'/f'/!8va)! | %125
 d'/c'/a/f/ c[cgc'] | (3f/f/f/f'/f/ g/a/f/c'/ |!8va(! (3d'/d'/d'/d''/e'/ f'/g'/e'/f'/ | %128
 (3a'/a'/a'/a'/[a'f'']/ d''/c''/a'/f'/!8va)! | d'/c'/a/f/ c[cgc'] | [fa]/c/ z [ff'][Fdf] | %131
 [Fcf][fc'f'] [gc'g']c' |{/c'} [aa'][ff'][K:bass] z/!mf! F,/[DF]/F,/ | z/ F,/[CF]/F,/ z [G,C]/C,/ | %134
 z [C,F,A,] z [F,DF] |[K:treble] [FBf][fc'f'] [gc'g']c' |{/c'} [aa'][ff'][K:bass] z/ F,/[DF]/F,/ | %137
 z/ F,/[CF]/F,/ z/ D,/[G,D]/D,/ | z [G,C]/F,/ z [CF]/F,/ | x [CE]/E,/ z/ D,/[G,D]/D,/ | %140
 z [G,C]/F,/ z [CF]/F,/ | x [CE]/E,/ z/ D,/[G,D]/D,/ | z [G,C]/F,/ z [CF]/F,/ | %143
 x [CE]/E,/ z/ D,/[G,D]/D,/ | z [G,C]/F,/ z [CF]/F,/ | x [CE]/E,/ z/ D,/[G,D]/D,/ | %146
 x C/C,/ x C,/D,/ |"^cresc." x C/C,/ x C,/D,/ |"_strepitoso."!ff! !trill(!TC,2- C,>^B,, | %149
!fff! C,/"^staccato."^^C,/E,/D,/ ^C,/B,,/A,,/G,,/ |"^subito." F,,!p![F,A,]/C,/ z [F,B,] | z4 | z4 | %153
 z4 | z4 | z4 | z4 | z4 | z4 | z4 | z4 | z4 | z4 | z4 | z4 | z4 | %166
"^Facilité." F,,,/F,,/ [A,C]/D,/ F,,/C,/ A,/F,/ | F,,,/F,,/ [A,C]/D,/ F,,/C,/ A,/F,/ | %168
 F,,,/F,,/ [A,C]/D,/ F,,/C,/ A,/F,/ | F,,,/F,,/ [A,C]/D,/ F,,/C,/ A,/F,/ | z4 | z4 | z4 | z4 | z4 | %175
 z4 | z4 | z4 | z4 | z4 | z4 | z4 | z4 | z4 | z4 | z4 | %186
[K:treble]"_un poco piu\n  animato.""_ben misurato."[Q:1/4=120] [Acf]/F/ [A,CF]/A/ [fac']/d/ [CFA]/c/ | %187
 [fac']/d/ [CFA]/c/ [eac']/c/ [A,CF]/A/ | [cfa]/A/ [G,C]/G/ [cg]/G/ [F,A,C]/F/ | %189
 [cfa]/A/ [G,C]/G/ [cg]/G/ [F,A,C]/F/ | [Acf]/F/ [A,CF]/A/ [fac']/d/ [CFA]/c/ | %191
 [fad']/d/ [CFA]/c/ [eac']/d/ [A,CF]/A/ | [cfa]/A/ [G,C]/G/ [cg]/G/ [F,A,C]/F/ | %193
 [Acf]/F/ [A,CF]/A/ [Acf]/F/ !^!C | [Acf]/F/ [A,CF]/A/ [fac']/d/ [FAc]/C/ | %195
 [ac'f']/f/ [FAc]/f/ [ac'f']/f/ [CFA]/c/ | [fad']/d/ [DGB]/d/ [bd'f']/f/ [EGB]/d/ | %197
 [fac']/d/ [CFA]/c/ [fac']/d/ [CFA]/c/ | [fad']/d/ [CFA]/c/ [fad']/d/ [A,CF]/A/ | %199
 [fad']/d/ [CFA]/c/ [fad']/d/ [A,CF]/A/ | [cfa]/A/ [G,C]/G/ [cg]/G/ [F,A,C]/F/ | %201
 [Acf]/G/ [F,A,C]/F/ [Acf]/G/ [F,A,C]/F/ | [Acf]/G/ [F,A,C]/F/ [fac']/d/ [CFA]/c/ | %203
 [fad']/d/ [CFA]/c/ [fac']/d/ [A,CF]/A/ | [cfa]/A/ [G,C]/G/ [cg]/G/ [F,A,C]/F/ | %205
 [cfa]/A/ [G,C]/G/ [cg]/G/ [F,A,C]/F/ | [Acf]/F/ [A,CF]/A/ [eac']/e/ [CFA]/A/ | %207
 [fbd']/d/ [CFA]/c/ [fac']/c/ [A,CF]/B/ | [Acf]/G/ [F,A,C]/G/ [Acf]/G/ [F,A,C]/F/ | %209
 [Acf]/F/ [A,CF]/A/ [Acf]/F/ !^!C | [Acf]/F/ [A,CF]/A/ [fac']/d/ [FAc]/C/ | %211
 [ac'f']/f/ [FAc]/f/ [ac'f']/f/ [CFA]/c/ | [fad']/d/ [DGB]/d/ [bd'f']/f/ [EGB]/d/ | %213
 [fac']/d/ [CFA]/c/ [fac']/d/ [CFA]/c/ | [fad']/d/ [CFA]/c/ [fad']/d/ [A,CF]/A/ | %215
 [fad']/d/ [CFA]/c/ [fad']/d/ [A,CF]/A/ | z4 | z4 | z4 | z4 | z4 | z4 | z4 | z4 |] %224
V:2
 x4 | x4 | x4 | x4 | x4 | x4 | x4 | x4 |][M:2/4] x4 | x4 | x4 | x4 | x4 | x4 | x4 | x4 | x4 | x4 | %18
 x4 | x4 | x4 | x4 | x4 | x4 | x4 | x4 | x4 | x4 | x4 | x4 | x4 | x4 | x4 | x4 | x4 | x4 | x4 | %37
 x4 | x4 | x4 | x4 | x4 | x4 | x4 | x4 | x4 | x4 | x4 | x4 | x4 | x4 | x4 | x4 | x4 | x4 | x4 | %56
 x4 | x4 | x4 | x4 |!8va(! x4!8va)! | x4 | x4 |!8va(! x4 | x4!8va)! | x4 | x4 | x4 | %68
 x2[K:bass] D,2 | C,A,, C,C,, | F,,2 [B,,,B,,]2 |[K:treble] x4 | x2[K:bass] D,2 | C,A,, ^B,,G,, | %74
 C,,2 C,,/C,/ x | C,,/C,/ x G,,G,, | C,,2 C,,/C,/ x | C,,/C,/ x G,,G,, | C,,2 C,,/C,/ x | %79
 C,,/C,/ x G,,G,, | C,,2 C,,/C,/ x | C,,/C,/ x G,,G,, | C,,/C,/ x C,,/G,,/ x | %83
 C,,/C,/ x C,,/G,,/ x | C,,2- C,,>!trill)!^B,,, | C,,/^^C,,/E,,/D,,/ ^C,,/B,,,/A,,,/G,,,/ | %86
 A,,,2 [G,,,G,,]G,, | x4 | x4 | x4 | x4 | x4 | x4 | x4 | x4 | x4 | x4 | x4 | x4 | x4 | x4 | x4 | %102
 x4 | x4 | x4 | x4 | x4 | x4 | x4 | x4 | x4 | x4 | x4 | x4 | x4 | x4 | x4 | x4 | x4 | x4 | x4 | %121
 x4 | x4 | x4 |[K:treble]!8va(! x4!8va)! | x4 | x4 |!8va(! x4 | x4!8va)! | x4 | x4 | x4 | %132
 x2[K:bass] D,2 | C,A,, C,C,, | F,,2 [B,,,B,,]2 |[K:treble] x4 | x2[K:bass] D,2 | C,A,, ^B,,G,, | %138
 C,,2 C,,/C,/ x | C,,/C,/ x G,,G,, | C,,2 C,,/C,/ x | C,,/C,/ x G,,G,, | C,,2 C,,/C,/ x | %143
 C,,/C,/ x G,,G,, | C,,2 C,,/C,/ x | C,,/C,/ x G,,G,, | C,,/C,/ x C,,/G,,/ x | %147
 C,,/C,/ x C,,/G,,/ x | C,,2- C,,>!trill)!^B,,, | C,,/^^C,,/E,,/D,,/ ^C,,/B,,,/A,,,/G,,,/ | %150
 A,,,2 [G,,,G,,]G,, | x4 | x4 | x4 | x4 | x4 | x4 | x4 | x4 | x4 | x4 | x4 | x4 | x4 | x4 | x4 | %166
 x4 | x4 | x4 | x4 | x4 | x4 | x4 | x4 | x4 | x4 | x4 | x4 | x4 | x4 | x4 | x4 | x4 | x4 | x4 | %185
 x4 |[K:treble] x4 | x4 | x4 | x4 | x4 | x4 | x4 | x4 | x4 | x4 | x4 | x4 | x4 | x4 | x4 | x4 | %202
 x4 | x4 | x4 | x4 | x4 | x4 | x4 | x4 | x4 | x4 | x4 | x4 | x4 | x4 | x4 | x4 | x4 | x4 | x4 | %221
 x4 | x4 | x4 |] %224
V:3
 z4 | z4 | z4 | z4 | z4 | z4 | z4 | z4 |][M:2/4] z4 | z4 | z4 | z4 | z4 | z4 | z4 | z4 | z4 | z4 | %18
 z4 | z4 | z4 | z4 | z4 | z4 | z4 | z4 | z4 | z4 | z4 | z4 | z4 | z4 | z4 | z4 | z4 | z4 | z4 | %37
 z4 | z4 | z4 | z4 | z4 | z4 | z4 | z4 | z4 | z4 | z4 | z4 | z4 | z4 | z4 | z4 | z4 | z4 | z4 | %56
 z4 | z4 | z4 | z4 | z4 | z4 | z4 | z4 | z4 | z4 | z4 | z4 | z4 | z4 | z4 | z4 | z4 | z4 | z4 | %75
 z4 | z4 | z4 | z4 | z4 | z4 | z4 | z4 | z4 | z4 | z4 | z4 | z4 | z4 | z4 | z4 | z4 | z4 | z4 | %94
 z4 | z4 | z4 | z4 | z4 | z4 | z4 | z4 | z4 | z4 | z4 | z4 | z4 | z4 | z4 | z4 | z4 | z4 | z4 | %113
 z4 | z4 | z4 | z4 | z4 | z4 | z4 | z4 | z4 | z4 | z4 | z4 | z4 | z4 | z4 | z4 | z4 | z4 | z4 | %132
 z4 | z4 | z4 | z4 | z4 | z4 | z4 | z4 | z4 | z4 | z4 | z4 | z4 | z4 | z4 | z4 | z4 | z4 | z4 | %151
 z4 | z4 | z4 | z4 | z4 | z4 | z4 | z4 | z4 | z4 | z4 | z4 | z4 | z4 | z4 | z4 | z4 | z4 | z4 | %170
 z4 | z4 | z4 | z4 | z4 | z4 | z4 | z4 | z4 | z4 | z4 | z4 | z4 | z4 | z4 | z4 | z4 | z4 | z4 | %189
 z4 | z4 | z4 | z4 | z4 | z4 | z4 | z4 | z4 | z4 | z4 | z4 | z4 | z4 | z4 | z4 | z4 | z4 | z4 | %208
 z4 | z4 | z4 | z4 | z4 | z4 | z4 | z4 |!ppp! [cfa]/A/ x [cg]/G/ x | [Acg]/F/ x [Acg]/F/ x | x4 | %219
 x4 | x4 | z/ f/a/c'/!8va(! f'/f'/a'/c''/ | c''2 [d'f'a'd'']2!8va)! | !fermata![A,CFA]4 |] %224
V:4
 z4 | z4 | z4 | z4 | z4 | z4 | z4 | z4 |][M:2/4] z4 | z4 | z4 | z4 | z4 | z4 | z4 | z4 | z4 | z4 | %18
 z4 | z4 | z4 | z4 | z4 | z4 | z4 | z4 | z4 | z4 | z4 | z4 | z4 | z4 | z4 | z4 | z4 | z4 | z4 | %37
 z4 | z4 | z4 | z4 | z4 | z4 | z4 | z4 | z4 | z4 | z4 | z4 | z4 | z4 | z4 | z4 | z4 | z4 | z4 | %56
 z4 | z4 | z4 | z4 | z4 | z4 | z4 | z4 | z4 | z4 | z4 | z4 | z4 | z4 | z4 | z4 | z4 | z4 | z4 | %75
 z4 | z4 | z4 | z4 | z4 | z4 | z4 | z4 | z4 | z4 | z4 | z4 | z4 | z4 | z4 | z4 | z4 | z4 | z4 | %94
 z4 | z4 | z4 | z4 | z4 | z4 | z4 | z4 | z4 | z4 | z4 | z4 | z4 | z4 | z4 | z4 | z4 | z4 | z4 | %113
 z4 | z4 | z4 | z4 | z4 | z4 | z4 | z4 | z4 | z4 | z4 | z4 | z4 | z4 | z4 | z4 | z4 | z4 | z4 | %132
 z4 | z4 | z4 | z4 | z4 | z4 | z4 | z4 | z4 | z4 | z4 | z4 | z4 | z4 | z4 | z4 | z4 | z4 | z4 | %151
 z4 | z4 | z4 | z4 | z4 | z4 | z4 | z4 | z4 | z4 | z4 | z4 | z4 | z4 | z4 | z4 | z4 | z4 | z4 | %170
 z4 | z4 | z4 | z4 | z4 | z4 | z4 | z4 | z4 | z4 | z4 | z4 | z4 | z4 | z4 | z4 | z4 | z4 | z4 | %189
 z4 | z4 | z4 | z4 | z4 | z4 | z4 | z4 | z4 | z4 | z4 | z4 | z4 | z4 | z4 | z4 | z4 | z4 | z4 | %208
 z4 | z4 | z4 | z4 | z4 | z4 | z4 | z4 | x [G,C]/G/ x [F,A,C]/F/ | x [F,A,C]/F/ x [F,A,C]/F/ | x4 | %219
 x4 | x4 |[K:treble] [A,CF]2 [A,CF]2 | [CFA]2 [CFAc]2 |[K:bass] !fermata![F,,F,]4 |] %224
V:5
!ff!"^Introduzione." .[F,F]>.[A,A] .[Cc]((!^![Cc] | .[Dd])).[Cc] .[Cc]2 | .[A,A] !^![G,G]2 .[F,F] | %3
 .[A,A] !^![G,G]2 .[F,F] | .[F,F]>.[A,A] .[Cc]((!^![Cc] | .[Dd])).[Cc] .[Cc]2 | %6
"_Tutta    la forza!" .[Ff] !^![Dd]2 [Cc] | .[A,A] !^![G,G]2[I:staff +1] .[C,C] |] %8
[M:2/4]!p!"_Con Spirito"[I:staff -1] x4 | x4 | x4 | x4 |!p! x4 | x4 | x4 | x4 |!pp! x4 | x4 | x4 | %19
 x4 |!pp! x4 | x4 | x4 | x4 | x4 | x4 | x4 | x4 | x4 | x4 | x4 | x4 | x4 |"_Cresc."!<(! x4 | x4 | %35
 x4!<)! |!f! x4 | x4 |!pp! x4 | x4 | x4 | x4 | x4 | x4 | x4 | x4 | x4 | x4 | x4 | x4 |!p! x4 | x4 | %52
 x4 | x4 | x4 | x4 |"_ben misurato." z4 | z4 |!f! (3f/f/f/"_brilliante."f'/f/ g/a/f/c'/ | %59
!8va(! (3d'/d'/d'/d''/e'/ f'/g'/e'/f'/ | %60
!ff! (3a'/a'/"^Martellato."a'/a'/[a'f'']/ c''/g'/[f'c'']/a'/ | c'/[af']/c'/f/ f''[g'c''g'']!8va)! | %62
 (3f/f/f/f'/f/ g/a/f/c'/ |!8va(! (3d'/d'/d'/d''/e'/ f'/g'/e'/f'/ | %64
!ff! (3a'/a'/a'/a'/[a'f'']/ c''/g'/[f'c'']/a'/ | c'/[af']/c'/f/ f''[g'c''g''] | %66
!ff! [a'f'']/f'/ z [f'd''f'']!8va)!"_tutta la forza."[Fdf] | %67
!8va(! [f'c''f'']!8va)![Fcf]!8va(! [g'd''g'']!8va)![Gdg] | [af'a'][Acf] x x | x3/2 F/ x2 | %70
 x2 z [Fdf] |!ff!!8va(! [f'c''f'']!8va)![Fcf]!8va(! [g'd''g'']!8va)![Gdg] | [af'a'][Acf] x x | %73
 x3/2 F/ x2 | x4 | x4 | x4 | x4 | x4 | x4 | x4 | x4 | x4 |"_cresc." x4 | %84
"_Martellato\nTutta la forza." x4 |!fff! x4 |!ff!"_subito." x4!p! | x4 | x4!p! | x4 |!mf! x4 | x4 | %92
 x4 | x4 | x4 | x4 | x4 | x4 | x4 | x4 | x4 | x4 | x4!pp! | x4 | x4 | x4 | x4 | x4 | x4 | x4 | x4 | %111
 x4 | x4 | x4 | x4 | x4 | x4 | x4 | x4 | x4 | z4 | z4 | (3f/f/f/"_con spirito."f'/f/ g/a/f/c'/ | %123
!8va(! (3d'/d'/d'/d''/e'/ f'/g'/e'/f'/ | %124
 (3a'/a'/"_ben martellato."a'/a'/[a'f'']/ c''/g'/[f'c'']/a'/ | %125
 c'/[af']/c'/f/ f''!f![g'c''g'']!8va)! | (3f/f/f/f'/f/ g/a/f/c'/ | %127
!8va(! (3d'/d'/d'/d''/e'/ f'/g'/e'/f'/ | (3a'/a'/a'/a'/[a'f'']/ c''/g'/[f'c'']/a'/ | %129
 c'/[af']/c'/f/ f''!f![g'c''g''] |!ff! [a'f'']/f'/ z [f'd''f'']!8va)!"_tutta la forza."[Fdf] | %131
!8va(! [f'c''f'']!8va)![Fcf]!8va(! [g'd''g'']!8va)![Gdg] | [af'a'][Acf] x x | x3/2 F/ x2 | %134
 x2 z!ff! [Fdf] |!8va(! [f'c''f'']!8va)![Fcf]!8va(! [g'd''g'']!8va)![Gdg] | [af'a'][Acf] x x | %137
 x3/2 F/ x2 | x4 | x4 | x4 | x4 | x4 | x4 | x4 | x4 | x4 |"_cresc." x4 | %148
"_Martellato\n    tutta la forza." x4 |!fff! x4 |!ff!"_subito." x4!p! | x4 | x4!p! | x4 | x4 | x4 | %156
 x4 | x4 | z4 | x4 | x4 | x4 | x4 |"_dim."!>(! x4!>)! | x4!pp! | x4 |!pp! x4 | %167
"_cres  _  _  _  _  _  _ cen  _  _  _  _  _  _  _  _  do." x4 | x4 | x4 | %170
"^Ben misurato\n     e tranquillo." x2 [Cc]/[FA]/ !^!C | [Dd]/[FA]/ x [Cc]/[FA]/ x | %172
 [A,A]/[CF]/ x [G,G]/[A,C]/ x | [A,A]/[CF]/ x [G,G]/[A,C]/ x | x2 [Cc]/[FA]/ !^!C | %175
 [Dd]/[FA]/ x [Cc]/[FA]/ x | [A,A]/[CF]/ x [G,G]/[A,C]/ x | x4 | x2 [Cc]/[FA]/ !^!C | %179
 [Ff]/[Ac]/ x [Ff]/[Ac]/ !^!C | [Dd]/[FB]/ x [Ff]/[Bd]/ !^!D | [Cc]/[FA]/ z [Cc]/[FA]/ !^!C | %182
!<(! !^![Dd]/[FB]/ x [Cc]/[FA]/ x | !^![Dd]/[FB]/ x [Cc]/[FA]/ x | [A,A]/[CE]/ x [G,G]/[A,C]/ x | %185
 x4!<)! |!f! [FAcf]/[FAcf]/ [A,CFA]/[A,CFA]/ [cfac']/[cfac']/ [CFAc]/[CFAc]/ | %187
"_martellato." [dfad']/[dfad']/ [CFAc]/[CFAc]/ [cfac']/[cfac']/ [A,CFA]/[A,CFA]/ | %188
 [Acfa]/[Acfa]/ [G,CG]/[G,CG]/ [Gcg]/[Gcg]/ [F,A,CF]/[F,A,CF]/ | %189
 [Acfa]/[Acfa]/ [G,CG]/[G,CG]/ [Gcg]/[Gcg]/ [F,A,CF]/[F,A,CF]/ | %190
 [FAcf]/[FAcf]/ [A,CFA]/[A,CFA]/ [cfac']/[cfac']/ [CFAc]/[CFAc]/ | %191
 [dfad']/[dfad']/ [CFAc]/[CFAc]/ [cfac']/[cfac']/ [A,CFA]/[A,CFA]/ | %192
 [Acfa]/[Acfa]/ [G,CG]/[G,CG]/ [Gcg]/[Gcg]/ [F,A,CF]/[F,A,CF]/ | %193
 [FAcf]/[FAcf]/ x [FAcf]/[FAcf]/ x | %194
"_un poco piu" [FAcf]/[FAcf]/ [A,CFA]/[A,CFA]/ [cfac']/[cfac']/!f! [CFAc]/[CFAc]/ | %195
 [fac'f']/[fac'f']/ [FAcf]/[FAcf]/ [fac'f']/[fac'f']/ [CFAc]/[CFAc]/ | %196
"_piu presto." [dfbd']/[dfbd']/ [DFBd]/[DFBd]/ [fbd'f']/[fbd'f']/ [DFBd]/[DFBd]/ | %197
 [cfac']/[cfac']/ [CFAc]/[CFAc]/ [cfac']/[cfac']/ [CFAc]/[CFAc]/ | %198
"_sempre piu     presto." [dfad']/[dfad']/ [CFAc]/[CFAc]/ [cfac']/[cfac']/ [A,CFA]/[A,CFA]/ | %199
 [dfad']/[dfad']/ [CFAc]/[CFAc]/ [cfac']/[cfac']/ [A,CFA]/[A,CFA]/ | %200
 [Acfa]/[Acfa]/ [G,CG]/[G,CG]/ [Gcg]/[Gcg]/ x | [FAcf]/[FAcf]/ x [FAcf]/[FAcf]/ x | %202
!ff! [FAcf]/[FAcf]/"_prestissimo." [A,CFA]/[A,CFA]/ [cfac']/[cfac']/ [CFAc]/[CFAc]/ | %203
 [dfad']/[dfad']/"_cresc." [CFAc]/[CFAc]/ [cfac']/[cfac']/ [A,CFA]/[A,CFA]/ | %204
 [Acfa]/[Acfa]/ [G,CG]/[G,CG]/ [Gcg]/[Gcg]/ [F,A,CF]/[F,A,CF]/ | %205
 [Acfa]/[Acfa]/ [G,CG]/[G,CG]/ [Gcg]/[Gcg]/ [F,A,CF]/[F,A,CF]/ | %206
 [FAcf]/[FAcf]/ [A,CFA]/[A,CFA]/ [cfac']/[cfac']/ [CFAc]/[CFAc]/ | %207
 [dfad']/[dfad']/ [CFAc]/[CFAc]/ [cfac']/[cfac']/ [A,CFA]/[A,CFA]/ | %208
 [Acfa]/[Acfa]/ [G,CG]/[G,CG]/ [Gcg]/[Gcg]/ [F,A,CF]/[F,A,CF]/ | %209
 [FAcf]/[FAcf]/ x [FAcf]/[FAcf]/ x | %210
"_velocissimo..........." [FAcf]/[FAcf]/ [A,CFA]/[A,CFA]/ [cfac']/[cfac']/ [CFAc]/[CFAc]/ | %211
 [fac'f']/[fac'f']/"_tutta la forza." [FAcf]/[FAcf]/ [fac'f']/[fac'f']/ [CFAc]/[CFAc]/ | %212
 [dfbd']/[dfbd']/ [DFBd]/[DFBd]/ [fbd'f']/[fbd'f']/ [DFBd]/[DFBd]/ | %213
 [cfac']/[cfac']/ [CFAc]/[CFAc]/ [cfac']/[cfac']/ [CFAc]/[CFAc]/ | %214
!fff! [dfad']/[dfad']/ [CFAc]/[CFAc]/ [cfac']/[cfac']/ [A,CFA]/[A,CFA]/ | %215
 [dfad']/[dfad']/ [CFAc]/[CFAc]/ [cfac']/[cfac']/ [A,CFA]/[A,CFA]/ | %216
 [Acfa]/[Acfa]/ [G,CG]/[G,CG]/ [Gcg]/[Gcg]/ x | %217
"^Prestissimo.""_ben martellato." [FAcf]/[FAcf]/ x [FAcf]/[FAcf]/ x | x4 | x4 | x4 | %221
!ffff! z!8va(! [fac'f'] [f'a'c''f''][fac'f'] | [f'a'c''f'']2 [f'a'c''f'']2!8va)! | %223
 !fermata![CF]4 |] %224
V:6
 .[F,,,F,,]>.[A,,,A,,] .[C,,C,]((!^![C,,C,] | .[D,,D,])).[C,,C,] .[C,,C,]2 | %2
 .[A,,,A,,] !^![G,,,G,,]2 .[F,,,F,,] | .[A,,,A,,] !^![G,,,G,,]2 .[F,,,F,,] | %4
 .[F,,,F,,]>.[A,,,A,,] .[C,,C,]((!^![C,,C,] | .[D,,D,])).[C,,C,] .[C,,C,]2 | %6
 .[F,,F,] !^![D,,D,]2 .[C,,C,] | .[A,,,A,,] !^![G,,,G,,]2 .[C,,,C,,] |] %8
[M:2/4] z [F,A,]/C,/ z .[F,B,] | z [F,C]/C,/ z .[D,F,D] | z !^![F,C-]/C,/ z/ C,/[E,B,]/C,/ | %11
 !^!C/C,/[F,A,]/D,/ z/ C,/[E,G,]/C,/ | z [F,A,]/C,/ z .[F,B,] | z [F,C]/C,/ z .[D,F,D] | %14
 z !^![F,C-]/C,/ z/ C,/[E,B,]/C,/ | !^!C/C,/[F,A,]/D,/ z/ C,/[E,G,]/C,/ | z [F,A,]/C,/ z .[F,B,] | %17
 z [F,A,]/C,/ z/ C,/[E,G,]/C,/ | z [F,A,]/C,/ z .[F,B,] | z [F,A,]/C,/ z/ C,/[F,G,]/C,/ | %20
 z [F,A,]/C,/ z .[F,B,] | z [F,A,]/C,/ z/ C,/[E,G,]/C,/ | z [F,A,]/C,/ z .[F,B,] | %23
 z [F,A,]/C,/ z/ C,/[F,G,]/C,/ | (6:4:6z/ C,/F,/A,/F,/C,/ z .[D,F,D] | %25
 z !^![C,F,C-] z/ C,/.[E,B,]/C,/ | (6:4:6C/C,/F,/A,/F,/C,/ z !^![D,F,D] | %27
 z !^![C,F,C] z/ C,/.[E,B,]/C,/ | (6:4:6z/ C,/F,/A,/F,/C,/ z .[D,F,D] | %29
 z !^![C,F,C-] z/ C,/.[E,B,]/C,/ | (6:4:6C/C,/F,/A,/F,/C,/ z !^![D,F,D] | %31
 z !^![C,F,C] z/ C,/.[E,B,]/C,/ | z/ F,/F,/[F,F]/ z/ F,/F,/[D,D]/ | z/ C,/C,/[A,,A,]/ z [A,,C,A,] | %34
 z/ F,/F,/[F,F]/ z/ F,/F,/[D,D]/ | z/ C,/C,/[A,,A,]/ z [A,,C,A,] | %36
 z/ F,/F,/[F,F]/ z/ F,/F,/[D,D]/ | z/ C,/C,/[A,,A,]/ z [A,,C,A,] | z/ F,/ z/ F,/ G,/F,/A,/F,/ | %39
 z/ F,/ z/ F,/ G,/F,/A,/F,/ | z/ F,/ z/ F,/ G,/F,/A,/F,/ | z/ F,/z/F,/ z/ F,/z/F,/ | %42
 z/ F,/ z/ F,/ G,/F,/A,/F,/ | z/ F,/ z/ F,/ G,/F,/A,/F,/ | z/ F,/ z/ F,/ G,/F,/A,/F,/ | %45
 z/ F,/z/F,/ z/ F,/z/F,/ | z/ F,/ z/ F,/ G,/F,/A,/F,/ | z/ F,/ z/ F,/ G,/F,/A,/F,/ | %48
 z/ F,/ z/ F,/ G,/F,/A,/F,/ | z/ F,/z/F,/ z/ F,/z/F,/ | z [F,A,]/C,/ z .[F,B,] | %51
 z [F,A,]/C,/ z/ C,/[E,G,]/C,/ | (6:4:6z/ C,/F,/A,/F,/C,/ z [E,B,]/C,/ | %53
 z [F,A,]/C,/ (6:4:6z/ B,,/F,/A,/F,/B,,/ | z [F,A,]/C,/ z [C,E,B,] | %55
 (6:4:6z/ C,/F,/A,/F,/C,/ z/ C,/[E,G,]/C,/ | .F,,[F,A,]/C,/ .G,,!^![C,E,B,] | %57
 .F,,!^![C,F,A,] .C,,!^![C,E,G,] | [F,,F,][A,CF] [F,,F,][A,CF] | [F,,F,][A,DF] [F,,F,][A,=DF] | %60
 [F,,F,][A,CF] [F,,F,][A,CF] | [F,,F,][A,CF] [C,,C,][G,CE] | [F,,F,][A,CF] [F,,F,][A,CF] | %63
 [F,,F,][A,DF] [F,,F,][A,=DF] | [F,,F,][A,CF] [F,,F,][A,CF] | [F,,F,][A,CF] [C,,C,][G,CE] | %66
 [F,,F,][A,CF] [B,,,B,,][B,D] | [A,,,A,,][A,C] [G,,,G,,][G,CE] | %68
 [F,,,F,,][A,CF] D,/F,/"^Martellato."[I:staff -1] B,/[I:staff +1]F,/ | %69
 C,/F,/[I:staff -1] [A,C]/[I:staff +1]F,/ B,,/D,/ [F,A,]/[D,D]/ | %70
 C,/F,,/ [F,A,]/[C,C]/ [B,,,B,,][B,D] | [A,,,A,,][A,C] [G,,,G,,][G,CE] | %72
 [F,,,F,,][A,CF] D,/F,/"^Martellato."[I:staff -1] B,/[I:staff +1]F,/ | %73
 C,/F,/[I:staff -1] [A,C]/[I:staff +1]F,/ B,,/D,/ [F,G,]/[^B,,^B,]/ | %74
 G,,/C,,/ [E,G,]/[C,C]/ C,/[F,,F,]/ [A,C]/[F,F]/ | %75
 C,/[E,,E,]/ [G,C]/[E,E]/ G,,/[D,,D,]/ [G,^B,]/[D,D]/ | %76
 G,,/[C,,C,]/ [E,E]/[A,C]/ C,/[F,,F,]/ [A,C]/[F,F]/ | %77
 C,/[E,,E,]/ [G,C]/[E,E]/ G,,/[D,,D,]/ [G,^B,]/[D,D]/ | G,,/C,,/ z C,/[F,,F,]/ [A,C]/[F,F]/ | %79
 C,/[E,,E,]/ [G,C]/[E,E]/ G,,/[D,,D,]/ [G,^B,]/[D,D]/ | %80
 G,,/[C,,C,]/ [E,E]/[A,C]/ C,/[F,,F,]/ [A,C]/[F,F]/ | %81
 C,/[E,,E,]/ [G,C]/[E,E]/ G,,/[D,,D,]/ [G,^B,]/[D,D]/ | %82
 [C,,C,]/[C,,C,]/ [C,C]/[C,C]/ C,/C,/ [C,C]/[C,C]/ | C,/C,/ [C,C]/[C,C]/ C,/C,/ [C,C]/[C,C]/ | %84
 [C,,,C,,][^B,,,,^B,,,]/[C,,,C,,]/ [^^D,,^^D,]/[E,,E,]/ [^^F,,,^^F,,]/[G,,,G,,]/ | %85
 C,/C,/ [^B,,,^B,,]/[C,,C,]/ ^^C,/D,/ [=E,,=E,]/[^E,,^E,]/ | [F,F][F,A,]/C,/ z [F,B,] | %87
 z [F,C]/C,/ z .[D,F,D] | z !^![F,C-]/C,/ z/ C,/[E,B,]/C,/ | z/ C,/[F,A,]/D,/ z/ C,/[E,G,]/C,/ | %90
 z [F,A,]/C,/ z .[F,B,] | z [F,C]/C,/ z .[D,F,D] | z !^![F,C-]/C,/ z/ C,/[E,B,]/C,/ | %93
 z/ C,/[F,A,]/D,/ z/ C,/[E,G,]/C,/ | z [F,A,]/C,/ z .[C,E,B,] | z [F,A,]/C,/ z/ C,/[E,G,]/C,/ | %96
 z [F,A,]/C,/ z .[C,E,B,] | z [F,A,]/C,/ (6:4:6z/ B,,/F,/G,/F,/B,,/ | z [F,A,]/C,/ z [C,E,B,] | %99
 z !^![C,F,C-] z/ C,/[D,D]/!>(!C,/ | z/ C,/[F,A,]/C,/!>)! z [D,F,D] | %101
 z [C,F,C] z/!>(! C,/[E,C]/C,/ | z/ F,/F,/[F,F]/!>)! z/ F,/F,/[D,D]/ | %103
 z/ C,/C,/[A,,A,]/ z !^![A,,C,A,] | z/ F,/F,/[F,F]/ z/ F,/F,/[D,D]/ | %105
 z/ C,/C,/[A,,A,]/ z !^![A,,C,A,] | z/ F,/ z/ F,/ G,/F,/A,/F,/ | z/ F,/ z/ F,/ G,/F,/A,/F,/ | %108
 z/ F,/ z/ F,/ G,/F,/A,/F,/ | z/ F,/z/F,/ z/ F,/z/F,/ | z/ F,/ z/ F,/ G,/F,/A,/F,/ | %111
 z/ F,/ z/ F,/ G,/F,/A,/F,/ | z/ F,/ z/ F,/ G,/F,/A,/F,/ | z/ F,/z/F,/ z/ F,/z/F,/ | %114
 (6:4:6z/ B,,/F,/G,/F,/B,,/ z [C,E,B,] | z [F,A,]/C,/ z/ C,/[E,G,]/C,/ | z [F,A,]/C,/ z .[C,E,B,] | %117
 z/ C,/[F,A,]/C,/ (6:4:6z/ B,,/F,/G,/F,/B,,/ | z [F,A,]/C,/ z [C,E,B,] | %119
 z [F,A,]/C,/ z/ C,/[E,G,]/C,/ | .F,,[F,A,]/C,/ .G,,!^![C,E,B,] | .F,,!^![C,F,A,] .C,,!^![C,E,G,] | %122
 [F,,F,][A,CF] [F,,F,][A,CF] | [F,,F,][A,DF] [F,,F,][A,=DF] | [F,,F,][A,CF] [F,,F,][A,CF] | %125
 [F,,F,][A,CF] [C,,C,][G,CE] | [F,,F,][A,CF] [F,,F,][A,CF] | [F,,F,][A,DF] [F,,F,][A,=DF] | %128
 [F,,F,][A,CF] [F,,F,][A,CF] | [F,,F,][A,CF] [C,,C,][G,CE] | [F,,F,][A,CF] [B,,,B,,][B,D] | %131
 [A,,,A,,][A,C] [G,,,G,,][G,CE] | %132
 [F,,,F,,][A,CF] D,/F,/"^Martellato."[I:staff -1] B,/[I:staff +1]F,/ | %133
 C,/F,/[I:staff -1] [A,C]/[I:staff +1]F,/ B,,/D,/ [F,A,]/[D,D]/ | %134
 C,/F,,/ [F,A,]/[C,C]/ [B,,,B,,][B,D] | [A,,,A,,][A,C] [G,,,G,,][G,CE] | %136
 [F,,,F,,][A,CF] D,/F,/"^Martellato."[I:staff -1] B,/[I:staff +1]F,/ | %137
 C,/F,/[I:staff -1] [A,C]/[I:staff +1]F,/ B,,/D,/ [F,G,]/[^B,,^B,]/ | %138
 G,,/C,,/ [E,G,]/[C,C]/ C,/[F,,F,]/ [A,C]/[F,F]/ | %139
 C,/[E,,E,]/ [G,C]/[E,E]/ G,,/[D,,D,]/ [G,^B,]/[D,D]/ | %140
 G,,/[C,,C,]/ [E,E]/[A,C]/ C,/[F,,F,]/ [A,C]/[F,F]/ | %141
 C,/[E,,E,]/ [G,C]/[E,E]/ G,,/[D,,D,]/ [G,^B,]/[D,D]/ | G,,/C,,/ z C,/[F,,F,]/ [A,C]/[F,F]/ | %143
 C,/[E,,E,]/ [G,C]/[E,E]/ G,,/[D,,D,]/ [G,^B,]/[D,D]/ | %144
 G,,/[C,,C,]/ [E,E]/[A,C]/ C,/[F,,F,]/ [A,C]/[F,F]/ | %145
 C,/[E,,E,]/ [G,C]/[E,E]/ G,,/[D,,D,]/ [G,^B,]/[D,D]/ | %146
"^martellato." [C,,C,]/[C,,C,]/ [C,C]/[C,C]/ C,/C,/ [C,C]/[C,C]/ | %147
 C,/C,/ [C,C]/[C,C]/ C,/C,/ [C,C]/[C,C]/ | %148
 [C,,,C,,][^B,,,,^B,,,]/[C,,,C,,]/ [^^D,,^^D,]/[E,,E,]/ [^^F,,,^^F,,]/[G,,,G,,]/ | %149
 [C,C]/[C,C]/ [^B,,,^B,,]/[C,,C,]/ [^^C,^^C]/[D,D]/ [=E,,=E,]/[^E,,^E,]/ | %150
 [F,F][F,A,]/C,/ z [F,B,] | z [F,C]/C,/ z [D,F,D] | z !^![F,C-]/C,/ z/ C,/[E,B,]/C,/ | %153
 z/ C,/[F,A,]/D,/ z/ C,/[E,G,]/C,/ | z [F,A,]/C,/ z [C,E,B,] | z [F,C]/C,/ z/ C,/[E,G,]/C,/ | %156
 z [F,C]/C,/ z [D,F,B,] | z [F,A,]/C,/ z/ B,,/[F,G,]/B,,/ | z [F,C]/C,/ z [C,E,C] | %159
 z [F,A,]/C,/ z/ C,/[E,G,]/C,/ | z [F,A,]/C,/ z [C,E,B,] | z [F,A,]/C,/ z/ B,,/[F,G,]/B,,/ | %162
 A,/C,/ z/ F,/ G,/F,/A,/F,/ | z/ F,/ z/ F,/ G,/F,/A,/F,/ | z/ F,/ z/ F,/ G,/F,/A,/F,/ | %165
 z/ F,/z/F,/ z/ F,/z/F,/ | [F,,,F,,]/[F,,,F,,]/ [A,C]/D,/ C,/C,/ C,/C,/ | %167
 [F,,,F,,]/[F,,,F,,]/ [A,C]/D,/ C,/C,/ C,/C,/ | [F,,,F,,]/[F,,,F,,]/ [A,C]/D,/ C,/C,/ C,/C,/ | %169
 [F,,,F,,]/[F,,,F,,]/ [A,C]/D,/ C,/C,/ C,/C,/ | [F,F]/[A,C]/ A,/A,/ x2 | %171
 [F,,F,][I:staff -1]C/C/[I:staff +1] x (!^!A, | F,,)G,/G,/ x (!^!F, | F,,)G,/G,/ x !^!F, | %174
 [F,,,F,,]A,/A,/ x2 | [F,,F,]C/C/ x !^!A, | F,,G,/G,/ x !^!F, | F,,F,/F,/ x !^!C, | F,,A,/A,/ x2 | %179
 [F,,F,][I:staff -1]F/F/[I:staff +1] x2 | B,,[I:staff -1]D/D/[I:staff +1] x2 | %181
 [F,,F,][I:staff -1]C/C/[I:staff +1] x2 | [F,,F,][I:staff -1]C/C/[I:staff +1] x !^!A, | %183
 [F,,F,][I:staff -1]C/C/[I:staff +1] x !^!A, | C,,G,/G,/ x !^!F, | F,,F,/F,/ x !^!F, | x4 | x4 | %188
 x4 | x4 | x4 | x4 | x4 | x [F,A,CF]/[F,A,CF]/ x !^![C,F,A,C] | x4 | x4 | x4 | x4 | x4 | x4 | %200
 x3 [F,A,CF]/[F,A,CF]/ | x [F,A,CF]/[F,A,CF]/ x [F,A,CF]/[F,A,CF]/ | x4 | x4 | x4 | x4 | x4 | x4 | %208
 x4 | x [F,A,CF]/[F,A,CF]/ x !^![C,F,A,C] | x4 | x4 | x4 | x4 | x4 | x4 | x3 [F,A,CF]/[F,A,CF]/ | %217
 x [F,A,CF]/[F,A,CF]/ x [F,A,CF]/[F,A,CF]/ | x4 | x4 | x4 | [F,A,CF]2[K:treble] [CFAc]2 | %222
 [Acfa]2 [cfac']2 |[K:bass] [F,A,]4 |] %224
V:7
 x4 | x4 | x4 | x4 | x4 | x4 | x4 | x4 |][M:2/4] x4 | x4 | x4 | x4 | x4 | x4 | x4 | x4 | x4 | x4 | %18
 x4 | x4 | x4 | x4 | x4 | x4 | x4 | x4 | x4 | x4 | x4 | x4 | x4 | x4 | x4 | x4 | x4 | x4 | x4 | %37
 x4 | x4 | x4 | x4 | x4 | x4 | x4 | x4 | x4 | x4 | x4 | x4 | x4 | x4 | x4 | x4 | x4 | x4 | x4 | %56
 x4 | x4 | x4 |!8va(! x4 | x4 | x4!8va)! | x4 |!8va(! x4 | x4 | x4 | x3!8va)! x | %67
!8va(! x!8va)! x!8va(! x!8va)! x | x4 | x4 | x4 |!8va(! x!8va)! x!8va(! x!8va)! x | x4 | x4 | x4 | %75
 x4 | x4 | x4 | x4 | x4 | x4 | x4 | x4 | x4 | x4 | C/C/ x ^^C/D/ x | x4 | x4 | x4 | x4 | x4 | x4 | %92
 x4 | x4 | x4 | x4 | x4 | x4 | x4 | x4 | x4 | x4 | x4 | x4 | x4 | x4 | x4 | x4 | x4 | x4 | x4 | %111
 x4 | x4 | x4 | x4 | x4 | x4 | x4 | x4 | x4 | x4 | x4 | x4 |!8va(! x4 | x4 | x4!8va)! | x4 | %127
!8va(! x4 | x4 | x4 | x3!8va)! x |!8va(! x!8va)! x!8va(! x!8va)! x | x4 | x4 | x4 | %135
!8va(! x!8va)! x!8va(! x!8va)! x | x4 | x4 | x4 | x4 | x4 | x4 | x4 | x4 | x4 | x4 | x4 | x4 | x4 | %149
 x4 | x4 | x4 | x4 | x4 | x4 | x4 | x4 | x4 | x4 | x4 | x4 | x4 | x4 | x4 | x4 | x4 | x4 | x4 | %168
 x4 | x4 | x4 | x4 | x4 | x4 | x4 | x4 | x4 | x4 | x4 | x4 | x4 | x4 | x4 | x4 | x4 | x4 | x4 | %187
 x4 | x4 | x4 | x4 | x4 | x4 | x4 | x4 | x4 | x4 | x4 | x4 | x4 | x4 | x4 | x4 | x4 | x4 | x4 | %206
 x4 | x4 | x4 | x4 | x4 | x4 | x4 | x4 | x4 | x4 | x4 | x4 | x4 | x4 | x4 | x!8va(! x3 | x4!8va)! | %223
 x4 |] %224
V:8
 x4 | x4 | x4 | x4 | x4 | x4 | x4 | x4 |][M:2/4] !^![F,,,F,,]2 .[G,,,G,,].G,, | %9
 [A,,,A,,]2 .[B,,,B,,]B,, | [A,,,A,,]2 .[G,,,G,,].G,, | .[F,,,F,,].F,,.C,,.C,, | %12
 !^![F,,,F,,]2 .[G,,,G,,].G,, | [A,,,A,,]2 .[B,,,B,,]B,, | [A,,,A,,]2 .[G,,,G,,].G,, | %15
 .[F,,,F,,].F,,.C,,.C,, | !^![F,,,F,,]2 .[G,,,G,,].G,, | !^![F,,,F,,]2 .C,,.C,, | %18
 [F,,,F,,]2 .[G,,,G,,].G,, | !^![F,,,F,,]2 !^![D,,,D,,]2 | !^![F,,,F,,]2 .[G,,,G,,].G,, | %21
 !^![F,,,F,,]2 .C,,.C,, | [F,,,F,,]2 .[G,,,G,,].G,, | !^![F,,,F,,]2 !^![D,,,D,,]2 | %24
 !^![F,,,F,,]2 !^![B,,,B,,]F,, | [A,,,A,,]2 .[G,,,G,,]G,, | .[F,,,F,,].F,,[B,,,B,,]F,, | %27
 [A,,,A,,]2 [G,,,G,,]G,, | [F,,,F,,]F,,[B,,,B,,]F,, | [A,,,A,,]2 .[G,,,G,,]G,, | %30
 .[F,,,F,,].F,,[B,,,B,,]F,, | [A,,,A,,]2 [G,,,G,,]G,, | [F,,,F,,]F,,G,F,, | C,F,,G,,C,, | %34
 [F,,,F,,]F,,G,F,, | C,F,,G,,C,, | [F,,,F,,]F,,G,F,, | C,F,,G,,C,, | [F,,,F,,]C,.F,,.F,, | %39
{/F,,-} F,,.F,,.F,,.F,, |{/F,,-} F,,.F,,.F,,.F,, |{/F,,-} [F,,D,].C,.A,,.G,, | %42
{/F,,-} F,,.F,,.F,,.F,, |{/F,,-} F,,.F,,.F,,.F,, |{/F,,-} F,,.F,,.F,,.F,, | %45
{/F,,-} [F,,D,].C,.A,,.G,, |{/F,,-} F,,.F,,.F,,.F,, |{/F,,-} F,,.F,,.F,,.F,, | %48
{/F,,-} F,,.F,,.F,,.F,, |{/F,,-} F,,.C,.A,,.G,, | !^![F,,,F,,]2 !^![G,,,G,,].G,, | %51
 !^![F,,,F,,]2 .C,,.C,, | [F,,,F,,]2 .[G,,,G,,].G,, | !^![F,,,F,,]F,, [D,,,D,,]2 | %54
 !^![F,,,F,,]2 [G,,,G,,]G,, | [F,,,F,,]2 .C,,.C,, | x4 | x4 | x4 | x4 | x4 | x4 | x4 | x4 | x4 | %65
 x4 | x4 | x4 | x3[I:staff -1] D/F/ | x4 | x4 | x4 | x3 D/F/ | x4 | x4 | x4 | x4 | x4 | %78
[I:staff +1] z !^![C,G,C] x2 | x4 | x4 | x4 | x4 | x4 | x4 | x4 | z2 [G,,,G,,]G,, | %87
 [A,,,A,,]2 .[B,,,B,,]B,, | [A,,,A,,]2 .[G,,,G,,].G,, | .[F,,,F,,].F,,.C,,.C,, | %90
 !^![F,,,F,,]2 .[G,,,G,,].G,, | !^![A,,,A,,]2 .[B,,,B,,]B,, | [A,,,A,,]2 .[G,,,G,,].G,, | %93
 .[F,,,F,,].F,,.C,,.C,, | !^![F,,,F,,]2 !^![G,,,G,,]2 | [F,,,F,,]2 .C,,.C,, | %96
 [F,,,F,,]2 [G,,,G,,]G,, | [F,,,F,,]C,, !^![D,,,D,,]2 | !^![F,,,F,,]2 !^![G,,,G,,]2 | %99
 [A,,,A,,]2 .[B,,,B,,]B,, | [F,,,F,,]2 .[B,,,B,,]F,, | [A,,,A,,]2 [G,,,G,,]G,, | %102
 [F,,,F,,]F,,G,F,, | C,F,,G,,C,, | [F,,,F,,]F,,G,F,, | C,F,,G,,C,, | [F,,,F,,]C,.F,,.F,, | %107
{/F,,-} !^!F,,.F,,.F,,.F,, |{/F,,-} !^!F,,.F,,.F,,.F,, |{/F,,-} [F,,D,].C,.A,,.G,, | %110
{/F,,-} !^!F,,.F,,.F,,.F,, |{/F,,-} !^!F,,.F,,.F,,.F,, |{/F,,-} !^!F,,.F,,.F,,.F,, | %113
{/F,,-} [F,,D,].C,.A,,.G,, | !^![F,,,F,,]2 !^![G,,,G,,]2 | !^![F,,,F,,]2 .C,,.C,, | %116
 [F,,,F,,]2 [G,,,G,,]G,, | !^![F,,,F,,]2 [D,,,D,,]2 | !^![F,,,F,,]2 !^![G,,,G,,]2 | %119
 !^![F,,,F,,]2 .C,,.C,, | x4 | x4 | x4 | x4 | x4 | x4 | x4 | x4 | x4 | x4 | x4 | x4 | %132
 x3[I:staff -1] D/F/ | x4 | x4 | x4 | x3 D/F/ | x4 | x4 | x4 | x4 | x4 | %142
[I:staff +1] z !^![C,G,C] x2 | x4 | x4 | x4 | x4 | x4 | x4 | x4 | z2 [G,,,G,,]G,, | %151
 [A,,,A,,]2 .[B,,,B,,]B,, | [A,,,A,,]2 .[G,,,G,,].G,, | .[F,,,F,,].F,,.C,,.C,, | %154
 !^![F,,,F,,]2 !^![G,,,G,,]G,, | !^![A,,,A,,]2 .C,,.C,, | [A,,,A,,]2 .[B,,,B,,]B,, | %157
 [F,,,F,,]F,, !^![D,,,D,,]2 | !^![F,,,F,,]2 !^![G,,,G,,]2 | !^![F,,,F,,]2 .C,,.C,, | %160
 !^![F,,,F,,]2 .[G,,,G,,]G,, | [F,,,F,,]F,, !^![D,,,D,,]2 | [F,,,F,,]C,F,,F,, | %163
{/F,,-} F,,.F,,.F,,.F,, |{/F,,-} F,,.F,,.F,,.F,, |{/F,,-} [F,,D,].C,.A,,.G,, | x4 | x4 | x4 | x4 | %170
 [F,,,F,,] x3 | x4 | x4 | x4 | [F,F]/[A,C]/ x3 | x4 | x4 | [F,F]/[A,C]/ x [F,F]/[A,C]/ x | %178
 [F,F]/[A,C]/ x3 | x4 | x4 | x4 | x4 | x4 | x4 | [F,F]/[A,C]/ x [F,F]/[A,C]/ x | x4 | x4 | x4 | %189
 x4 | x4 | x4 | x4 | x4 | x4 | x4 | x4 | x4 | x4 | x4 | x4 | x4 | x4 | x4 | x4 | x4 | x4 | x4 | %208
 x4 | x4 | x4 | x4 | x4 | x4 | x4 | x4 | x4 | x4 | x4 | x4 | x4 | x2[K:treble] x2 | x4 | %223
[K:bass] !fermata![F,,,F,,]4 |] %224
V:9
 x4 | x4 | x4 | x4 | x4 | x4 | x4 | x4 |][M:2/4] x4 | x4 | x4 | z/ x7/2 | x4 | x4 | x4 | z/ x7/2 | %16
 x4 | x4 | x4 | x4 | x4 | x4 | x4 | x4 | x4 | x4 | z/ x7/2 | x4 | x4 | x4 | z/ x7/2 | x4 | x4 | %33
 x4 | x4 | x4 | x4 | x4 | x4 | D,4 | C,4 | x4 | C,4 | D,4 | C,4 | x4 | C,4 | D,4 | C,4 | x4 | x4 | %51
 x4 | x4 | x4 | x4 | x4 | x4 | x4 | x4 | x4 | x4 | x4 | x4 | x4 | x4 | x4 | x4 | x4 | x4 | x4 | %70
 x4 | x4 | x4 | x4 | x4 | x4 | x4 | x4 | x4 | x4 | x4 | x4 | x4 | x4 | x4 | x4 | x4 | x4 | x4 | %89
 C4 | x4 | x4 | x4 | C4 | x4 | x4 | x4 | x4 | x4 | x4 | C4 | x4 | x4 | x4 | x4 | x4 | x4 | D,4 | %108
 C,4 | x4 | C,4 | D,4 | C,4 | x4 | x4 | x4 | x4 | x4 | x4 | x4 | x4 | x4 | x4 | x4 | x4 | x4 | x4 | %127
 x4 | x4 | x4 | x4 | x4 | x4 | x4 | x4 | x4 | x4 | x4 | x4 | x4 | x4 | x4 | x4 | x4 | x4 | x4 | %146
 x4 | x4 | x4 | x4 | x4 | x4 | x4 | C4 | x4 | x4 | x4 | x4 | x4 | x4 | x4 | x4 | x4 | D,4 | C,4 | %165
 x4 | x4 | x4 | x4 | x4 | x4 | x4 | x4 | x4 | x4 | x4 | x4 | x4 | x4 | x4 | x4 | x4 | x4 | x4 | %184
 x4 | x4 | x4 | x4 | x4 | x4 | x4 | x4 | x4 | x4 | x4 | x4 | x4 | x4 | x4 | x4 | x4 | x4 | x4 | %203
 x4 | x4 | x4 | x4 | x4 | x4 | x4 | x4 | x4 | x4 | x4 | x4 | x4 | x4 | x4 | x4 | x4 | x4 | %221
 x2[K:treble] x2 | x4 |[K:bass] x4 |] %224

